X:1
T: The Bobers o' Brechin
C:
R:Reel
Q: 232
K:Gm
M:4/4
L:1/8
|:g|dg g^f g2d=f|cd fg df cf|dg g^f g2dg|fd cA G3B|
Gg g^f g2d=f|cd fg af cf|d^f ga ba g=f|df cA G3d|
BG dG BG d=e|fd cf AF cA|BG dG BG dg|fd cA G3B|
BG dG BG d=e|fd cf AF cA|GA Bc d=e ^fg|=fd cA G3:|
